X: 3505
T: Biddy Martin's
R: polka
M: 2/4
K: Fdorian
|:c/B/A|FB Bc|BA c/B/A|FB B=G|A2 c/B/A|
FB Bc|BA c/B/A|FB B=G|A2:|
|:c/B/c|Bc ec|BA c2|Bc ec|B2 c/B/|
Bc ec|BA c/B/A|FB B=G|A2:|

